X:32
T: ICH HOERT EIN BAECHLEIN RAUSCHEN
N: B0519
O: Europa, Mitteleuropa, Deutschland
R: Wander - Lied
M: 2/4
L: 1/16
K: G
Bc | d2d2d2d2 | d3BG2
BG | D2D2DFAF | G4z2
Bc | d2d2d2d2 | d3BG2
BG | D2D2DFAF | G4z2
B2 | B2B2z2BA | ^G2G2z2
=G2 | A2A2e2ed | c4z2
A2 | BcBcd2d2 | d3BG2
BG | D2D2DFAF | G4z2

@@@ Tune index: 2250
